Hatter-kde/actions/24/format-align-vertical-top.svg

<?xml version="1.0" encoding="UTF-8"?>
<svg viewBox="0 0 24 24" xmlns="http://www.w3.org/2000/svg">
 <defs id="defs3051">
  <style id="current-color-scheme" type="text/css">.ColorScheme-Text {
        color:#363636;
      }</style>
 </defs>
 <path class="ColorScheme-Text" d="m4 4v1h1 14 1v-1h-1-14-1zm8 3-3 4h2v6 2 1h2v-1-3-5h2l-3-4z" fill="currentColor"/>
</svg>

<svg xmlns="http://www.w3.org/2000/svg" viewBox="0 0 24 24">
  <defs id="defs3051">
    <style type="text/css" id="current-color-scheme">
      .ColorScheme-Text {
        color:#363636;
      }
      </style>
  </defs>
 <path style="fill:currentColor;fill-opacity:1;stroke:none" 
     d="M 4 4 L 4 5 L 5 5 L 19 5 L 20 5 L 20 4 L 19 4 L 5 4 L 4 4 z M 12 7 L 9 11 L 11 11 L 11 17 L 11 19 L 11 20 L 13 20 L 13 19 L 13 16 L 13 11 L 15 11 L 12 7 z "
     class="ColorScheme-Text"
     />
</svg>
